usr/share/icons/biglinux-icons-material/16/actions/edit-select-none.svg

<svg version="1.1" viewBox="0 0 16 16" xmlns="http://www.w3.org/2000/svg">
 <defs>
  <style id="current-color-scheme" type="text/css">.ColorScheme-Text {
        color:#dedede;
      }
      .ColorScheme-NegativeText {
        color:#da4453;
      }</style>
 </defs>
 <g>
  <path d="m11.5 8a3.5 3.5 0 0 0-3.5 3.5 3.5 3.5 0 0 0 3.5 3.5 3.5 3.5 0 0 0 3.5-3.5 3.5 3.5 0 0 0-3.5-3.5zm-1.668 1 1.668 1.668 1.668-1.668 0.83203 0.83203-1.668 1.668 1.668 1.668-0.83203 0.83203-1.668-1.668-1.668 1.668-0.83203-0.83203 1.668-1.668-1.668-1.668z" class="ColorScheme-NegativeText" fill="currentColor"/>
  <path class="ColorScheme-Text" d="m4 4v3h3v-3zm5 0v3h3v-3zm-4 1h1v1h-1zm5 0h1v1h-1zm-6 4v3h3v-3zm1 1h1v1h-1z" fill="currentColor"/>
  <path d="m3 1c-1.108 0-2 0.892-2 2v2h1v-2c0-0.554 0.446-1 1-1h2v-1zm8 0v1h2c0.554 0 1 0.446 1 1v2h1v-2c0-1.108-0.892-2-2-2zm-10 10v2c0 1.108 0.892 2 2 2h2v-1h-2c-0.554 0-1-0.446-1-1v-2z" class="ColorScheme-Text" fill="currentColor"/>
 </g>
</svg>

<svg xmlns="http://www.w3.org/2000/svg" viewBox="0 0 16 16"><defs><style id="current-color-scheme" type="text/css">.ColorScheme-Text{color:#dedede}</style></defs><path fill="currentColor" d="M11.5 8A3.5 3.5 0 0 0 8 11.5a3.5 3.5 0 0 0 3.5 3.5 3.5 3.5 0 0 0 3.5-3.5A3.5 3.5 0 0 0 11.5 8zM9.832 9l1.668 1.668L13.168 9l.832.832-1.668 1.668L14 13.168l-.832.832-1.668-1.668L9.832 14 9 13.168l1.668-1.668L9 9.832z" style="color:#da4453"/><path fill="currentColor" d="M4 4v3h3V4zm5 0v3h3V4zM5 5h1v1H5zm5 0h1v1h-1zM4 9v3h3V9zm1 1h1v1H5zM3 1c-1.108 0-2 .892-2 2v2h1V3c0-.554.446-1 1-1h2V1zm8 0v1h2c.554 0 1 .446 1 1v2h1V3c0-1.108-.892-2-2-2zM1 11v2c0 1.108.892 2 2 2h2v-1H3c-.554 0-1-.446-1-1v-2z" class="ColorScheme-Text"/></svg>
